assets/icons/24px/stroke/internet-browser-24px.svg

<svg width="24" height="24" viewBox="0 0 24 24" fill="none" xmlns="http://www.w3.org/2000/svg">
<path fill-rule="evenodd" clip-rule="evenodd" d="M12 4C7.58172 4 4 7.58172 4 12C4 16.4183 7.58172 20 12 20C16.4183 20 20 16.4183 20 12C20 7.58172 16.4183 4 12 4ZM2 12C2 6.47715 6.47715 2 12 2C17.5228 2 22 6.47715 22 12C22 17.5228 17.5228 22 12 22C6.47715 22 2 17.5228 2 12Z" fill="white"/>
<path fill-rule="evenodd" clip-rule="evenodd" d="M11.3895 10.6487C11.0931 10.8405 10.8406 11.093 10.6487 11.3895L7.68594 15.9684C7.53955 16.1946 7.8054 16.4605 8.03164 16.3141L12.6105 13.3513C12.907 13.1594 13.1595 12.907 13.3513 12.6105L16.3141 8.0316C16.4605 7.80536 16.1946 7.53951 15.9684 7.6859L11.3895 10.6487ZM11 13C11.5523 13.5523 12.4477 13.5523 13 13C13.5523 12.4477 13.5523 11.5523 13 11C12.4477 10.4477 11.5523 10.4477 11 11C10.4477 11.5523 10.4477 12.4477 11 13Z" fill="white"/>
<path fill-rule="evenodd" clip-rule="evenodd" d="M15.2605 8.73947L12.863 10.2908C13.0399 10.3802 13.2058 10.4987 13.3535 10.6465C13.5013 10.7942 13.6198 10.9601 13.7092 11.137L15.2605 8.73947ZM11.137 13.7092C10.9601 13.6199 10.7942 13.5013 10.6465 13.3536C10.4987 13.2058 10.3802 13.0399 10.2908 12.863L8.73952 15.2605L11.137 13.7092ZM15.6968 7.26611C16.3755 6.82694 17.1731 7.6245 16.7339 8.30323L13.7711 12.8821C13.5409 13.2379 13.2379 13.5408 12.8821 13.7711L8.30327 16.7339C7.62455 17.173 6.82698 16.3755 7.26615 15.6967L10.229 11.1179C10.4592 10.7621 10.7621 10.4591 11.1179 10.2289L15.6968 7.26611ZM12.6464 11.3536C12.2894 10.9966 11.7106 10.9966 11.3536 11.3536C10.9965 11.7106 10.9965 12.2894 11.3536 12.6465C11.7106 13.0035 12.2894 13.0035 12.6464 12.6465C13.0035 12.2894 13.0035 11.7106 12.6464 11.3536Z" fill="white"/>
</svg>

<svg width="24" height="24" fill="none" xmlns="http://www.w3.org/2000/svg"><path fill-rule="evenodd" clip-rule="evenodd" d="M12 4a8 8 0 1 0 0 16 8 8 0 0 0 0-16zM2 12C2 6.477 6.477 2 12 2s10 4.477 10 10-4.477 10-10 10S2 17.523 2 12z" fill="#fff"/><path fill-rule="evenodd" clip-rule="evenodd" d="M11.39 10.649a2.501 2.501 0 0 0-.741.74l-2.963 4.58c-.146.226.12.492.346.345l4.579-2.963a2.5 2.5 0 0 0 .74-.74l2.963-4.58c.146-.226-.12-.491-.346-.345l-4.579 2.963zM11 13a1.414 1.414 0 1 0 2-2 1.414 1.414 0 0 0-2 2z" fill="#fff"/><path fill-rule="evenodd" clip-rule="evenodd" d="M15.26 8.74l-2.397 1.55a1.911 1.911 0 0 1 .846.847l1.552-2.398zm-4.123 4.97a1.91 1.91 0 0 1-.846-.847L8.74 15.261l2.397-1.552zm4.56-6.444c.678-.44 1.476.359 1.037 1.037l-2.963 4.58a3 3 0 0 1-.889.888l-4.579 2.963c-.678.439-1.476-.359-1.037-1.037l2.963-4.58a3 3 0 0 1 .889-.888l4.579-2.963zm-3.05 4.088a.914.914 0 1 0-1.293 1.292.914.914 0 0 0 1.292-1.292z" fill="#fff"/></svg>
